svg/u1f62e_200d_1f4a8.svg

<svg viewBox="0 0 128 128" xmlns="http://www.w3.org/2000/svg">
  <g>
    <radialGradient id="face_1_" cx="64" cy="-2088.8999" gradientTransform="matrix(1 0 0 -1 0 -2026)" gradientUnits="userSpaceOnUse" r="56.9597">
      <stop offset="0.5" stop-color="#FDE030"/>
      <stop offset="0.9188" stop-color="#F7C02B"/>
      <stop offset="1" stop-color="#F4A223"/>
    </radialGradient>
    <path id="face_16_" d="M64,118.8c-27.9,0-58-17.5-58-55.9S36.1,7,64,7c15.5,0,29.8,5.1,40.4,14.4 C115.9,31.6,122,46,122,62.9s-6.1,31.2-17.6,41.4C93.8,113.6,79.4,118.8,64,118.8z" fill="url(#face_1_)"/>
    <path d="M111.89,29.67c5.33,8.6,8.11,18.84,8.11,30.23c0,16.9-6.1,31.2-17.6,41.4 c-10.6,9.3-25,14.5-40.4,14.5c-18.06,0-37.04-7.35-48.18-22.94C24.58,110.52,44.81,118.8,64,118.8c15.4,0,29.8-5.2,40.4-14.5 C115.9,94.1,122,79.8,122,62.9C122,50.16,118.53,38.84,111.89,29.67z" fill="#EB8F00"/>
  </g>
  <g id="face-with-open-mouth_18_">
    <path id="mouth_18_" d="M35.34,94.66c-0.42,3.53,3.44,3.91,3.44,3.91s28,1.15,36.81,1.16 c5.18,0.01,4.34-5.21-0.78-9.08c-3.09-2.34-8.07-4.84-19.75-4.84C46.04,85.81,35.81,90.73,35.34,94.66z" fill="#422B0D"/>
  </g>
  <g id="eyebrows_32_">
    <path d="M44.72,34.15c0,0,1.86-1.07,3.5,0.26c0.91,0.74,1.37,2.13,0.37,3.14c-4,5.02-14.48,7.99-19.57,6.51 c-0.97-0.31-1.5-1.35-1.18-2.32c0.28-0.86,1.13-1.39,2.03-1.25C36.46,39.76,40.77,37.59,44.72,34.15z" fill="#422B0D"/>
  </g>
  <g id="eyebrows_31_">
    <path d="M69.92,33.58c0,0-1.86-1.07-3.5,0.26c-0.91,0.74-1.37,2.13-0.37,3.14c4,5.02,14.48,7.99,19.57,6.51 c0.97-0.31,1.5-1.35,1.18-2.32c-0.28-0.86-1.13-1.39-2.03-1.25C78.18,39.19,73.87,37.02,69.92,33.58z" fill="#422B0D"/>
  </g>
  <path d="M37.69,96.1c-2.03,0.3-4.06,0.54-6.1,0.74c-2.65,0.25-5.46,0.39-7.84-0.81 c-1.11-0.56-2.07-1.39-3.17-1.95c-2.74-1.4-6.15-1.02-8.88,0.41c-2.37,1.23-4.39,3.3-5.11,5.87s0.08,5.62,2.26,7.16 c3.77,2.66,1.55,3.37,2.57,7.08c1.09,4,5.62,7.03,9.66,5.87c1.45-0.42,2.67-1.65,4.11-1.93c1.57-0.31,3.19,0.57,4.76,0.56 c3.3-0.02,5.62-3.51,5.96-6.8c0.17-1.6,0.03-3.22,0.3-4.8c0.85-4.9,5.31-8.17,8.94-11.56c1.73-1.62-1.67-0.82-2.26-0.7 C41.16,95.57,39.42,95.85,37.69,96.1z" fill="#FFFFFF"/>
  <path d="M6.59,100.35c0.72-2.57,2.75-4.64,5.11-5.87c2.73-1.42,6.14-1.81,8.88-0.41 c0.13,0.07,0.26,0.15,0.39,0.23c-1.15-0.15-2.3-0.29-3.49-0.18c-1.73,0.15-3.47,0.74-4.75,1.92c-0.5,0.46-0.92,1.01-1.28,1.59 c-0.93,1.5-1.45,3.35-1.02,5.06c0.34,1.34,1.52,2.84,2.97,3.06c1.6,0.24,3.04-1.24,4.71-1.03c0.72,0.09,1.49,0.85,1.09,1.46 c-0.24,0.36-0.74,0.41-1.17,0.49c-1.37,0.25-2.59,1.22-3.15,2.5c-0.28,0.63-0.4,1.32-0.4,2.01c-0.01,2.58,1.77,5.08,4.21,5.91 c1.58,0.53,3.37,0.35,4.84-0.41c0.7-0.36,1.1-1.07,1.8-1.41c0.69-0.33,1.69-0.38,2.44-0.34c0.81,0.04,1.61,0.18,2.42,0.12 c1.92-0.15,3.32-1.46,4.12-3.12c0.91-1.9,0.56-3.72,0.82-5.76c0.22-1.76,1.08-3.4,2.19-4.79c1.06-1.33,2.35-2.52,3.66-3.6 c0.68-0.56,1.46-0.98,2.22-1.44c0.28-0.17,2.01-1.45,2.24-1.34c0.26,0.12,0.25,0.39-0.32,0.92c-3.63,3.39-8.09,6.66-8.94,11.56 c-0.28,1.58-0.14,3.21-0.3,4.8c-0.35,3.29-2.66,6.78-5.96,6.8c-1.57,0.01-3.19-0.87-4.76-0.56c-1.44,0.28-2.66,1.51-4.11,1.93 c-4.03,1.17-8.56-1.87-9.66-5.87c-1.02-3.71,1.21-4.42-2.57-7.08C6.67,105.97,5.87,102.92,6.59,100.35z" fill="#92CBEB"/>
  <path d="M46.02,98.85c0,0,4.56-3.54,10.95-3.63c7.81-0.11,14.64,4.47,14.64,4.47L46.02,98.85z" fill="#F48FB1"/>
  <line fill="none" stroke="#422B0D" stroke-linecap="round" stroke-miterlimit="10" stroke-width="5" x1="68.51" x2="89.3" y1="58.4" y2="58.4"/>
  <line fill="none" stroke="#422B0D" stroke-linecap="round" stroke-miterlimit="10" stroke-width="5" x1="25.26" x2="46.05" y1="58.4" y2="58.4"/>
  <path d="M28.93,58.97c-0.05,0.47-0.08,0.94-0.08,1.44c0,5.88,3.35,9.43,7.04,9.43s7.04-3.55,7.04-9.43 c0-0.5-0.03-0.98-0.08-1.44H28.93z" fill="#422B0D"/>
  <path d="M72.53,58.4c-0.09,0.64-0.14,1.31-0.14,2.02c0,5.88,3.35,9.43,7.04,9.43c3.69,0,7.04-3.55,7.04-9.43 c0-0.71-0.05-1.38-0.14-2.02H72.53z" fill="#422B0D"/>
  <path d="M67.19,106.24c-1.96,0.44-3.63,0.55-5.28,0.64c-1.64,0.07-3.22,0.06-4.79-0.01 c-1.57-0.07-3.14-0.2-4.74-0.39c-1.62-0.21-3.21-0.43-5.16-0.81l-0.11-0.28c1.59-0.69,3.28-1.08,4.99-1.29 c1.71-0.22,3.43-0.29,5.15-0.23c1.72,0.09,3.43,0.31,5.11,0.64c1.69,0.33,3.34,0.8,4.94,1.44L67.19,106.24z" fill="#EB8F00"/>
</svg>

<svg viewBox="0 0 128 128" xmlns="http://www.w3.org/2000/svg">
  <defs>
    <radialGradient id="face_1_" cx="64" cy="-62.8999" gradientTransform="matrix(1 0 0 -1 0 0)" gradientUnits="userSpaceOnUse" r="56.9597">
      <stop offset="0.5" stop-color="#FDE030"/>
      <stop offset="0.9188" stop-color="#F7C02B"/>
      <stop offset="1" stop-color="#F4A223"/>
    </radialGradient>
  </defs>
  <path id="face_16_" d="M64,118.8 C36.1,118.8 6,101.3 6,62.9 C6,24.5 36.1,7 64,7 C79.5,7 93.8,12.1 104.4,21.4 C115.9,31.6 122,46 122,62.9 C122,79.8 115.9,94.1 104.4,104.3 C93.8,113.6 79.4,118.8 64,118.8 Z" fill="url(#face_1_)"/>
  <path d="M111.89,29.67 C117.22,38.27 120,48.51 120,59.9 C120,76.8 113.9,91.1 102.4,101.3 C91.8,110.6 77.4,115.8 62,115.8 C43.94,115.8 24.96,108.45 13.82,92.86 C24.58,110.52 44.81,118.8 64,118.8 C79.4,118.8 93.8,113.6 104.4,104.3 C115.9,94.1 122,79.8 122,62.9 C122,50.16 118.53,38.84 111.89,29.67 Z" fill="#EB8F00"/>
  <path id="mouth_18_" d="M35.34,94.66 C34.92,98.19 38.78,98.57 38.78,98.57 C38.78,98.57 66.78,99.72 75.59,99.73 C80.77,99.74 79.93,94.52 74.81,90.65 C71.72,88.31 66.74,85.81 55.06,85.81 C46.04,85.81 35.81,90.73 35.34,94.66 Z" fill="#422B0D"/>
  <path d="M44.72,34.15 C44.72,34.15 46.58,33.08 48.22,34.41 C49.13,35.15 49.59,36.54 48.59,37.55 C44.59,42.57 34.11,45.54 29.02,44.06 C28.05,43.75 27.52,42.71 27.84,41.74 C28.12,40.88 28.97,40.35 29.87,40.49 C36.46,39.76 40.77,37.59 44.72,34.15 Z" fill="#422B0D"/>
  <path d="M69.92,33.58 C69.92,33.58 68.06,32.51 66.42,33.84 C65.51,34.58 65.05,35.97 66.05,36.98 C70.05,42 80.53,44.97 85.62,43.49 C86.59,43.18 87.12,42.14 86.8,41.17 C86.52,40.31 85.67,39.78 84.77,39.92 C78.18,39.19 73.87,37.02 69.92,33.58 Z" fill="#422B0D"/>
  <path d="M37.69,96.1 C35.66,96.4 33.63,96.64 31.59,96.84 C28.94,97.09 26.13,97.23 23.75,96.03 C22.64,95.47 21.68,94.64 20.58,94.08 C17.84,92.68 14.43,93.06 11.7,94.49 C9.33,95.72 7.31,97.79 6.59,100.36 C5.87,102.93 6.67,105.98 8.85,107.52 C12.62,110.18 10.4,110.89 11.42,114.6 C12.51,118.6 17.04,121.63 21.08,120.47 C22.53,120.05 23.75,118.82 25.19,118.54 C26.76,118.23 28.38,119.11 29.95,119.1 C33.25,119.08 35.57,115.59 35.91,112.3 C36.08,110.7 35.94,109.08 36.21,107.5 C37.06,102.6 41.52,99.33 45.15,95.94 C46.88,94.32 43.48,95.12 42.89,95.24 C41.16,95.57 39.42,95.85 37.69,96.1 Z" fill="#FFFFFF"/>
  <path d="M6.59,100.35 C7.31,97.78 9.34,95.71 11.7,94.48 C14.43,93.06 17.84,92.67 20.58,94.07 C20.71,94.14 20.84,94.22 20.97,94.3 C19.82,94.15 18.67,94.01 17.48,94.12 C15.75,94.27 14.01,94.86 12.73,96.04 C12.23,96.5 11.81,97.05 11.45,97.63 C10.52,99.13 10,100.98 10.43,102.69 C10.77,104.03 11.95,105.53 13.4,105.75 C15,105.99 16.44,104.51 18.11,104.72 C18.83,104.81 19.6,105.57 19.2,106.18 C18.96,106.54 18.46,106.59 18.03,106.67 C16.66,106.92 15.44,107.89 14.88,109.17 C14.6,109.8 14.48,110.49 14.48,111.18 C14.47,113.76 16.25,116.26 18.69,117.09 C20.27,117.62 22.06,117.44 23.53,116.68 C24.23,116.32 24.63,115.61 25.33,115.27 C26.02,114.94 27.02,114.89 27.77,114.93 C28.58,114.97 29.38,115.11 30.19,115.05 C32.11,114.9 33.51,113.59 34.31,111.93 C35.22,110.03 34.87,108.21 35.13,106.17 C35.35,104.41 36.21,102.77 37.32,101.38 C38.38,100.05 39.67,98.86 40.98,97.78 C41.66,97.22 42.44,96.8 43.2,96.34 C43.48,96.17 45.21,94.89 45.44,95 C45.7,95.12 45.69,95.39 45.12,95.92 C41.49,99.31 37.03,102.58 36.18,107.48 C35.9,109.06 36.04,110.69 35.88,112.28 C35.53,115.57 33.22,119.06 29.92,119.08 C28.35,119.09 26.73,118.21 25.16,118.52 C23.72,118.8 22.5,120.03 21.05,120.45 C17.02,121.62 12.49,118.58 11.39,114.58 C10.37,110.87 12.6,110.16 8.82,107.5 C6.67,105.97 5.87,102.92 6.59,100.35 Z" fill="#92CBEB"/>
  <path d="M46.02,98.85 C46.02,98.85 50.58,95.31 56.97,95.22 C64.78,95.11 71.61,99.69 71.61,99.69 L46.02,98.85 Z" fill="#F48FB1"/>
  <path d="M68.51,55.9 L89.3,55.9 Q90.336,55.9 91.068,56.632 Q91.8,57.364 91.8,58.4 Q91.8,59.436 91.068,60.168 Q90.336,60.9 89.3,60.9 L68.51,60.9 Q67.474,60.9 66.742,60.168 Q66.01,59.436 66.01,58.4 Q66.01,57.364 66.742,56.632 Q67.474,55.9 68.51,55.9 Z" fill="#422B0D"/>
  <path d="M25.26,55.9 L46.05,55.9 Q47.086,55.9 47.818,56.632 Q48.55,57.364 48.55,58.4 Q48.55,59.436 47.818,60.168 Q47.086,60.9 46.05,60.9 L25.26,60.9 Q24.224,60.9 23.492,60.168 Q22.76,59.436 22.76,58.4 Q22.76,57.364 23.492,56.632 Q24.224,55.9 25.26,55.9 Z" fill="#422B0D"/>
  <path d="M28.93,58.97 C28.88,59.44 28.85,59.91 28.85,60.41 C28.85,66.29 32.2,69.84 35.89,69.84 C39.58,69.84 42.93,66.29 42.93,60.41 C42.93,59.91 42.9,59.43 42.85,58.97 L28.93,58.97 Z" fill="#422B0D"/>
  <path d="M72.53,58.4 C72.44,59.04 72.39,59.71 72.39,60.42 C72.39,66.3 75.74,69.85 79.43,69.85 C83.12,69.85 86.47,66.3 86.47,60.42 C86.47,59.71 86.42,59.04 86.33,58.4 L72.53,58.4 Z" fill="#422B0D"/>
  <path d="M67.19,106.24 C65.23,106.68 63.56,106.79 61.91,106.88 C60.27,106.95 58.69,106.94 57.12,106.87 C55.55,106.8 53.98,106.67 52.38,106.48 C50.76,106.27 49.17,106.05 47.22,105.67 L47.11,105.39 C48.7,104.7 50.39,104.31 52.1,104.1 C53.81,103.88 55.53,103.81 57.25,103.87 C58.97,103.96 60.68,104.18 62.36,104.51 C64.05,104.84 65.7,105.31 67.3,105.95 L67.19,106.24 Z" fill="#EB8F00"/>
</svg>
